X:324
T:AIR III. Nanny-O.
B:Joseph Mitchell: "The Highland Fair" (1731)
Z:Jack Campin <http://www.purr.demon.co.uk/jack/jack.html>
M:C|
L:1/8
K:DMin
(F>G)|A3 c (Ac)(AG)|F2(ED) D2C>D |(F3G) (AB)(cA)|(d2     G>A)G2
(FG) |A2c2 (BA)(GF)|G2A2   f3  e | d3c   AcGA   | d2     DE  D2||
 AB  |c3 d  c2 (BA)|f2c2   c2(fe)| d3e  (fe)(fg)|(f/g/a) d2  d2
 cB  |A2f2 (cA)(GF)|G2A2   f3  e | d3c  (Ac)(GA)| d2    (D>E)D2|]
